X:186
%%topspace -50
T:My Love She's But a Lassie Yet!
M:4/4
L:1/4
K:D
d/c/ |"D"dDFA | dDDd/c/ | dDFA | "A7"eEEd/c/ | 
"D"dDFA | "G"Bgfe | "A7"d/c/B/A/Bc | "D"dDD :|
|:f/g/ | "D"a3/f/"A"g3/e/ | "D"fddf/g/ | "D"a3/f/"G"ga | "Em"be"A"ef/g/ | 
"D"aa/f/ "A"gg/e/ | "D"ff/d/"A"ec | "A7"d/c/B/A/Bc | "D"dDD :|

